evolvere-2-blue/devices/16/ipod.svg

<?xml version="1.0" encoding="UTF-8" standalone="no"?>
<!-- Created with Inkscape (http://www.inkscape.org/) -->

<svg
   xmlns:dc="http://purl.org/dc/elements/1.1/"
   xmlns:cc="http://creativecommons.org/ns#"
   xmlns:rdf="http://www.w3.org/1999/02/22-rdf-syntax-ns#"
   xmlns:svg="http://www.w3.org/2000/svg"
   xmlns="http://www.w3.org/2000/svg"
   xmlns:sodipodi="http://sodipodi.sourceforge.net/DTD/sodipodi-0.dtd"
   xmlns:inkscape="http://www.inkscape.org/namespaces/inkscape"
   width="15.999998"
   height="15.999998"
   id="svg13094"
   version="1.1"
   inkscape:version="0.48.3.1 r9886"
   sodipodi:docname="ipod.svg">
  <sodipodi:namedview
     id="base"
     pagecolor="#ffffff"
     bordercolor="#666666"
     borderopacity="1.0"
     inkscape:pageopacity="0.0"
     inkscape:pageshadow="2"
     inkscape:zoom="32"
     inkscape:cx="5.8157248"
     inkscape:cy="8.666668"
     inkscape:document-units="px"
     inkscape:current-layer="layer1"
     showgrid="true"
     inkscape:snap-bbox="true"
     inkscape:bbox-paths="true"
     inkscape:bbox-nodes="true"
     inkscape:snap-bbox-edge-midpoints="true"
     inkscape:snap-bbox-midpoints="true"
     inkscape:object-paths="true"
     inkscape:snap-intersection-paths="true"
     inkscape:object-nodes="true"
     inkscape:snap-smooth-nodes="true"
     inkscape:snap-midpoints="true"
     inkscape:snap-object-midpoints="true"
     inkscape:snap-center="true"
     showguides="false"
     inkscape:guide-bbox="true"
     inkscape:window-width="1920"
     inkscape:window-height="1023"
     inkscape:window-x="-10"
     inkscape:window-y="35"
     inkscape:window-maximized="1"
     inkscape:snap-global="true"
     fit-margin-top="0"
     fit-margin-left="0"
     fit-margin-right="0"
     fit-margin-bottom="0"
     showborder="true"
     inkscape:showpageshadow="false">
    <sodipodi:guide
       orientation="0,1"
       position="-25.000005,930.61286"
       id="guide4700" />
    <sodipodi:guide
       orientation="0,1"
       position="576.71887,328.89388"
       id="guide4702" />
    <sodipodi:guide
       orientation="1,0"
       position="576.71899,489.70395"
       id="guide4706" />
    <sodipodi:guide
       orientation="1,0"
       position="54.999996,930.61286"
       id="guide4708" />
    <sodipodi:guide
       orientation="0,1"
       position="-25.000005,850.61296"
       id="guide4710" />
    <sodipodi:guide
       orientation="0,1"
       position="536.71887,408.8938"
       id="guide4712" />
    <sodipodi:guide
       orientation="1,0"
       position="496.71887,408.8938"
       id="guide4714" />
    <inkscape:grid
       type="xygrid"
       id="grid3216"
       empspacing="5"
       visible="true"
       enabled="true"
       snapvisiblegridlinesonly="true"
       originx="-24.999951px"
       originy="-219.00005px" />
    <sodipodi:guide
       orientation="-0.70710664,0.70710692"
       position="4.0000502,-246.00005"
       id="guide3847" />
    <sodipodi:guide
       orientation="0.70710594,0.70710762"
       position="5.0000502,-245.00005"
       id="guide3849" />
    <sodipodi:guide
       orientation="-0.70710681,0.70710676"
       position="7.0000502,-212.00005"
       id="guide3851" />
  </sodipodi:namedview>
  <defs
     id="defs13096" />
  <metadata
     id="metadata13099">
    <rdf:RDF>
      <cc:Work
         rdf:about="">
        <dc:format>image/svg+xml</dc:format>
        <dc:type
           rdf:resource="http://purl.org/dc/dcmitype/StillImage" />
        <dc:title />
      </cc:Work>
    </rdf:RDF>
  </metadata>
  <g
     transform="translate(9379.308,-4843.1988)"
     id="layer1"
     inkscape:groupmode="layer"
     inkscape:label="Camada 1">
    <path
       style="font-size:medium;font-style:normal;font-variant:normal;font-weight:normal;font-stretch:normal;text-indent:0;text-align:start;text-decoration:none;line-height:normal;letter-spacing:normal;word-spacing:normal;text-transform:none;direction:ltr;block-progression:tb;writing-mode:lr-tb;text-anchor:start;baseline-shift:baseline;color:#000000;fill:#f1f3f5;fill-opacity:0.90288714000000003;fill-rule:nonzero;stroke:none;stroke-width:2;marker:none;visibility:visible;display:inline;overflow:visible;enable-background:accumulate;font-family:Sans;-inkscape-font-specification:Sans"
       d="M 3 0 C 1.802 0 1 0.80199999 1 2 L 1 14 C 1 15.198 1.802 16 3 16 L 13 16 C 14.198 16 15 15.198 15 14 L 15 2 C 15 0.80199999 14.198 -2.9605947e-16 13 0 L 3 0 z M 3 1 L 13 1 C 13.554 1 14 1.446 14 2 L 14 14 C 14 14.554 13.554 15 13 15 L 3 15 C 2.446 15 2 14.554 2 14 L 2 2 C 2 1.446 2.446 1 3 1 z M 4.5 3 C 4.223 3 4 3.223 4 3.5 C 4 3.777 4.223 4 4.5 4 L 11.5 4 C 11.777 4 12 3.777 12 3.5 C 12 3.223 11.777 3 11.5 3 L 4.5 3 z M 8 4.90625 C 5.7391038 4.90625 3.90625 6.7391038 3.90625 9 C 3.90625 11.260896 5.7391038 13.09375 8 13.09375 C 10.260896 13.09375 12.09375 11.260896 12.09375 9 C 12.09375 6.7391038 10.260896 4.90625 8 4.90625 z M 8 7 C 9.1046 7 10 7.8954 10 9 C 10 10.1046 9.1046 11 8 11 C 6.8954 11 6 10.1046 6 9 C 6 7.8954 6.8954 7 8 7 z "
       transform="translate(-9379.308,4843.1988)"
       id="rect2995" />
    <path
       style="color:#000000;fill:#27303a;fill-opacity:0.753280819999999968;fill-rule:nonzero;stroke:none;stroke-width:57.8928833;marker:none;visibility:visible;display:inline;overflow:visible;enable-background:accumulate"
       d="M 3 1 C 2.446 1 2 1.446 2 2 L 2 14 C 2 14.554 2.446 15 3 15 L 13 15 C 13.554 15 14 14.554 14 14 L 14 2 C 14 1.446 13.554 1 13 1 L 3 1 z M 4.5 3 L 11.5 3 C 11.777 3 12 3.223 12 3.5 C 12 3.777 11.777 4 11.5 4 L 4.5 4 C 4.223 4 4 3.777 4 3.5 C 4 3.223 4.223 3 4.5 3 z M 8 4.90625 C 10.2609 4.90625 12.09375 6.7391 12.09375 9 C 12.09375 11.2609 10.2609 13.09375 8 13.09375 C 5.7391 13.09375 3.90625 11.2609 3.90625 9 C 3.90625 6.7391 5.7391 4.90625 8 4.90625 z M 8 7 C 6.8954 7 6 7.8954 6 9 C 6 10.1046 6.8954 11 8 11 C 9.1046 11 10 10.1046 10 9 C 10 7.8954 9.1046 7 8 7 z "
       transform="translate(-9379.308,4843.1988)"
       id="path3047" />
  </g>
</svg>

<?xml version="1.0" encoding="UTF-8"?>
<!-- Created with Inkscape (http://www.inkscape.org/) -->
<svg width="16" height="16" version="1.1" xmlns="http://www.w3.org/2000/svg" xmlns:cc="http://creativecommons.org/ns#" xmlns:dc="http://purl.org/dc/elements/1.1/" xmlns:rdf="http://www.w3.org/1999/02/22-rdf-syntax-ns#">
	<defs>
		<style id="current-color-scheme" type="text/css">.ColorScheme-Text {color:#090d11;}.ColorScheme-Background{color:#ffffff;}</style>
	</defs>
	<metadata>
		<rdf:RDF>
			<cc:Work rdf:about="">
				<dc:format>image/svg+xml</dc:format>
				<dc:type rdf:resource="http://purl.org/dc/dcmitype/StillImage"/>
			</cc:Work>
		</rdf:RDF>
	</metadata>
	<g transform="translate(9379.3 -4843.2)">
		<path id="f" class="ColorScheme-Text" transform="translate(-9379.3 4843.2)" d="m3 1c-0.554 0-1 0.446-1 1v12c0 0.554 0.446 1 1 1h10c0.554 0 1-0.446 1-1v-12c0-0.554-0.446-1-1-1zm1.5 2h7c0.277 0 0.5 0.223 0.5 0.5s-0.223 0.5-0.5 0.5h-7c-0.277 0-0.5-0.223-0.5-0.5s0.223-0.5 0.5-0.5zm3.5 1.9062c2.2609 0 4.0938 1.8328 4.0938 4.0938s-1.8328 4.0938-4.0938 4.0938-4.0938-1.8328-4.0938-4.0938 1.8328-4.0938 4.0938-4.0938zm0 2.0938c-1.1046 0-2 0.8954-2 2s0.8954 2 2 2 2-0.8954 2-2-0.8954-2-2-2z" style="fill-opacity:.75;fill:currentColor"/>
		<path id="h" class="ColorScheme-Background" transform="translate(-9379.3 4843.2)" d="m3 0c-1.198 0-2 0.802-2 2v12c0 1.198 0.802 2 2 2h10c1.198 0 2-0.802 2-2v-12c0-1.198-0.802-2-2-2zm0 1h10c0.554 0 1 0.446 1 1v12c0 0.554-0.446 1-1 1h-10c-0.554 0-1-0.446-1-1v-12c0-0.554 0.446-1 1-1zm1.5 2c-0.277 0-0.5 0.223-0.5 0.5s0.223 0.5 0.5 0.5h7c0.277 0 0.5-0.223 0.5-0.5s-0.223-0.5-0.5-0.5zm3.5 1.9062c-2.2609 0-4.0938 1.8329-4.0938 4.0938 0 2.2609 1.8329 4.0938 4.0938 4.0938 2.2609 0 4.0938-1.8329 4.0938-4.0938 0-2.2609-1.8329-4.0938-4.0938-4.0938zm0 2.0938c1.1046 0 2 0.8954 2 2s-0.8954 2-2 2-2-0.8954-2-2 0.8954-2 2-2z" style="fill-opacity:.5;fill:currentColor"/>
	</g>
</svg>
